icon/radio-border-disabled.svg

<?xml version="1.0" encoding="utf-8"?>
<!-- Generator: Adobe Illustrator 26.3.1, SVG Export Plug-In . SVG Version: 6.00 Build 0)  -->
<svg version="1.1" id="图层_1" xmlns="http://www.w3.org/2000/svg" xmlns:xlink="http://www.w3.org/1999/xlink" x="0px" y="0px"
	 viewBox="0 0 12 12" style="enable-background:new 0 0 12 12;" xml:space="preserve">
<style type="text/css">
	.st0{fill-rule:evenodd;clip-rule:evenodd;fill:#F6C2C0;}
	.st1{fill-rule:evenodd;clip-rule:evenodd;fill:#D9908E;}
	.st2{fill-rule:evenodd;clip-rule:evenodd;fill:#FFF0EF;}
	.st3{fill-rule:evenodd;clip-rule:evenodd;fill:#FFFFFF;}
	.st4{fill-rule:evenodd;clip-rule:evenodd;fill:#FFDBD9;}
</style>
<path class="st0" d="M8,0H4v1H2v1H1v2H0v4h1v2h1V8H1V4h1V2h2V1h4v1h2V1H8V0z"/>
<path class="st1" d="M8,1H4v1H2v1v1H1v4h1v1h1V8H2V4h1V3h1V2h4v1h2V2H8V1z"/>
<path class="st2" d="M9,3h1v1H9V3z M10,8V4h1v4H10z M8,10V9h1V8h1v1v1H8z M4,10v1h4v-1H4z M4,10V9H2v1H4z"/>
<path class="st3" d="M11,2h-1v2h1v4h-1v2H8v1H4v-1H2v1h2v1h4v-1h2v-1h1V8h1V4h-1V2z"/>
<path class="st4" d="M4,2h4v1h1v1h1v4H9v1H8v1H4V9H3V8H2V4h1V3h1V2z"/>
</svg>

<svg width="12" height="12" viewBox="0 0 12 12" fill="none" xmlns="http://www.w3.org/2000/svg">
<path fill-rule="evenodd" clip-rule="evenodd" d="M8 0H4V1H2V2H1V4H0V8H1V10H2V8H1V4H2V2H4V1H8V2H10V1H8V0Z" fill="#808080"/>
<path fill-rule="evenodd" clip-rule="evenodd" d="M8 1H4V2H2V3V4H1V8H2V9H3V8H2V4H3V3H4V2H8V3H10V2H8V1Z" fill="black"/>
<path fill-rule="evenodd" clip-rule="evenodd" d="M9 3H10V4H9V3ZM10 8V4H11V8H10ZM8 10V9H9V8H10V9V10H8ZM4 10V11H8V10H4ZM4 10V9H2V10H4Z" fill="#DFDFDF"/>
<path fill-rule="evenodd" clip-rule="evenodd" d="M11 2H10V4H11V8H10V10H8V11H4V10H2V11H4V12H8V11H10V10H11V8H12V4H11V2Z" fill="white"/>
<path fill-rule="evenodd" clip-rule="evenodd" d="M4 2H8V3H9V4H10V8H9V9H8V10H4V9H3V8H2V4H3V3H4V2Z" fill="#C0C0C0"/>
</svg>
